flaticon/holiday/fanfare.svg

<svg xmlns="http://www.w3.org/2000/svg" width="32" height="32" viewBox="0 0 24 24">
    <path d="M 11.796875 15.863281 L 10.421875 15.863281 L 9.71875 14.460938 C 9.582031 14.1875 9.128906 14.1875 8.992188 14.460938 L 8.289062 15.863281 L 6.914062 15.863281 C 6.761719 15.863281 6.621094 15.953125 6.550781 16.089844 C 6.484375 16.226562 6.496094 16.390625 6.589844 16.515625 L 7.699219 17.996094 L 7.328125 19.851562 C 7.300781 20.003906 7.359375 20.160156 7.480469 20.257812 C 7.605469 20.351562 7.773438 20.367188 7.910156 20.296875 L 9.355469 19.574219 L 10.800781 20.296875 C 10.859375 20.324219 10.921875 20.339844 10.984375 20.339844 C 11.070312 20.339844 11.15625 20.3125 11.230469 20.253906 C 11.351562 20.160156 11.414062 20.003906 11.382812 19.851562 L 11.011719 17.996094 L 12.121094 16.515625 C 12.214844 16.390625 12.230469 16.226562 12.160156 16.089844 C 12.089844 15.953125 11.949219 15.863281 11.796875 15.863281 Z M 10.25 17.652344 C 10.179688 17.746094 10.15625 17.863281 10.175781 17.976562 L 10.421875 19.195312 L 9.539062 18.753906 C 9.480469 18.726562 9.417969 18.710938 9.355469 18.710938 C 9.292969 18.710938 9.230469 18.726562 9.175781 18.753906 L 8.289062 19.195312 L 8.535156 17.976562 C 8.558594 17.863281 8.53125 17.746094 8.460938 17.652344 L 7.730469 16.679688 L 8.542969 16.679688 C 8.695312 16.679688 8.835938 16.589844 8.90625 16.453125 L 9.355469 15.554688 L 9.804688 16.453125 C 9.875 16.589844 10.015625 16.679688 10.167969 16.679688 L 10.984375 16.679688 Z M 10.25 17.652344"/>
    <path d="M 23.59375 2.035156 C 23.367188 2.035156 23.1875 2.214844 23.1875 2.441406 L 23.1875 3.460938 C 19.546875 6.273438 15.226562 8.117188 10.664062 8.78125 L 2.820312 10.101562 C 2.691406 9.445312 2.117188 8.949219 1.421875 8.949219 C 0.636719 8.949219 0 9.585938 0 10.371094 L 0 12.40625 C 0 13.191406 0.636719 13.832031 1.421875 13.832031 C 2.117188 13.832031 2.691406 13.335938 2.820312 12.679688 L 4.472656 12.957031 L 4.472656 19.996094 C 4.472656 21.082031 5.359375 21.964844 6.445312 21.964844 L 12.269531 21.964844 C 13.355469 21.964844 14.238281 21.082031 14.238281 19.996094 L 14.238281 14.773438 C 17.46875 15.710938 20.511719 17.25 23.1875 19.320312 L 23.1875 20.339844 C 23.1875 20.5625 23.367188 20.746094 23.59375 20.746094 C 23.816406 20.746094 24 20.5625 24 20.339844 L 24 2.441406 C 24 2.214844 23.816406 2.035156 23.59375 2.035156 Z M 17.898438 7.546875 L 17.898438 15.234375 C 17.785156 15.183594 17.671875 15.140625 17.558594 15.09375 C 17.445312 15.042969 17.328125 14.992188 17.210938 14.945312 C 17.167969 14.929688 17.128906 14.910156 17.085938 14.894531 L 17.085938 7.886719 C 17.132812 7.867188 17.179688 7.847656 17.226562 7.828125 C 17.324219 7.785156 17.425781 7.746094 17.523438 7.703125 C 17.648438 7.648438 17.773438 7.597656 17.898438 7.546875 Z M 1.421875 13.015625 C 1.085938 13.015625 0.8125 12.742188 0.8125 12.40625 L 0.8125 10.371094 C 0.8125 10.035156 1.085938 9.761719 1.421875 9.761719 C 1.761719 9.761719 2.035156 10.035156 2.035156 10.371094 L 2.035156 12.40625 C 2.035156 12.742188 1.761719 13.015625 1.421875 13.015625 Z M 13.421875 14.550781 L 13.421875 19.996094 C 13.421875 20.632812 12.90625 21.152344 12.269531 21.152344 L 6.445312 21.152344 C 5.804688 21.152344 5.289062 20.632812 5.289062 19.996094 L 5.289062 13.09375 L 10.664062 13.996094 L 10.671875 13.996094 C 11.097656 14.058594 11.523438 14.136719 11.953125 14.222656 C 12.003906 14.230469 12.054688 14.242188 12.105469 14.25 C 12.546875 14.339844 12.984375 14.441406 13.421875 14.550781 Z M 14.226562 13.921875 C 13.355469 13.679688 12.472656 13.476562 11.582031 13.320312 C 11.320312 13.273438 11.054688 13.230469 10.796875 13.195312 L 9.289062 12.941406 L 2.847656 11.859375 L 2.847656 10.921875 L 10.789062 9.585938 C 12.664062 9.3125 14.5 8.84375 16.269531 8.195312 L 16.269531 14.582031 C 15.601562 14.339844 14.925781 14.117188 14.238281 13.925781 Z M 18.710938 15.609375 L 18.710938 7.167969 C 20.28125 6.417969 21.78125 5.519531 23.1875 4.480469 L 23.1875 18.296875 C 21.78125 17.257812 20.28125 16.363281 18.710938 15.609375 Z M 18.710938 15.609375"/>
</svg>

<svg xmlns="http://www.w3.org/2000/svg" width="32" height="32" viewBox="0 0 24 24">
    <path d="M11.797 15.863h-1.375l-.703-1.402c-.137-.274-.59-.274-.727 0l-.703 1.402H6.914a.413.413 0 0 0-.363.227.41.41 0 0 0 .039.426l1.11 1.48-.372 1.856a.426.426 0 0 0 .152.406c.125.094.293.11.43.039l1.445-.723 1.446.723a.436.436 0 0 0 .183.043.409.409 0 0 0 .398-.488l-.37-1.856 1.11-1.48a.401.401 0 0 0 .038-.426.413.413 0 0 0-.363-.227zm-1.547 1.79a.418.418 0 0 0-.074.324l.246 1.218-.883-.441a.406.406 0 0 0-.363 0l-.887.441.246-1.218a.403.403 0 0 0-.074-.325l-.73-.972h.812c.152 0 .293-.09.363-.227l.45-.898.449.898c.07.137.21.227.363.227h.816zm0 0"/>
    <path d="M23.594 2.035a.403.403 0 0 0-.407.406v1.02a26.836 26.836 0 0 1-12.523 5.32l-7.844 1.32a1.422 1.422 0 0 0-2.82.27v2.035c0 .785.637 1.426 1.422 1.426.695 0 1.27-.496 1.398-1.152l1.653.277v7.04c0 1.085.886 1.968 1.972 1.968h5.825a1.97 1.97 0 0 0 1.968-1.969v-5.223a26.868 26.868 0 0 1 8.95 4.547v1.02a.406.406 0 1 0 .812 0V2.44a.406.406 0 0 0-.406-.406zm-5.696 5.512v7.687c-.113-.05-.226-.093-.34-.14a9.296 9.296 0 0 0-.347-.149c-.043-.015-.082-.035-.125-.05V7.887l.14-.059c.098-.043.2-.082.297-.125.125-.055.25-.105.375-.156zM1.422 13.016a.61.61 0 0 1-.61-.61v-2.035a.61.61 0 0 1 1.223 0v2.035c0 .336-.273.61-.613.61zm12 1.535v5.445c0 .637-.516 1.156-1.152 1.156H6.445c-.64 0-1.156-.52-1.156-1.156v-6.902l5.375.902h.008c.426.063.851.14 1.281.227.05.007.102.02.152.027.442.09.88.191 1.317.3zm.805-.63a27.837 27.837 0 0 0-3.43-.726l-1.508-.254-6.441-1.082v-.937l7.941-1.336a27.438 27.438 0 0 0 5.48-1.39v6.386a27.97 27.97 0 0 0-2.03-.656zm4.484 1.688V7.168c1.57-.75 3.07-1.648 4.477-2.688v13.817a27.69 27.69 0 0 0-4.477-2.688zm0 0"/>
</svg>
